X: 1393
T: An Siocán Sneachta
R: jig
M: 6/8
K: Edorian
B,CD E3|FEE FEE|B,CD EFG|FEE E2F|
GBG FAF|EFE DB,A,|B,2E EDE|1 FEE E2D:|2 FEE E3||
|:efe dBA|BdB AFD|efe dBA|Bcd e2f|
gee fed|edB AFd|DFA dAF|1 FEE E3:|2 FEE E2=c||
|:BGG AFF|GAG FED|BGG AFF|GAF E2=c|
BGG AFF|GAG FED|B,2E EDE|1 FEE E2=c:|2 FEE E2D||

